app/assets/images/heroicon/solid/clipboard-document-check.svg

<svg width="24" height="24" viewBox="0 0 24 24" fill="none" xmlns="http://www.w3.org/2000/svg">
<path fill-rule="evenodd" clip-rule="evenodd" d="M4.875 7.5C3.83947 7.5 3 8.33947 3 9.375V20.625C3 21.6605 3.83947 22.5 4.875 22.5H14.625C15.6605 22.5 16.5 21.6605 16.5 20.625V9.375C16.5 8.33947 15.6605 7.5 14.625 7.5H4.875ZM12.8907 12.8304C13.1915 12.5456 13.2044 12.0709 12.9196 11.7701C12.6347 11.4694 12.16 11.4565 11.8593 11.7413C10.6534 12.8833 9.6701 14.2589 8.98197 15.7964L8.03033 14.8447C7.73744 14.5519 7.26256 14.5519 6.96967 14.8448C6.67678 15.1376 6.67678 15.6125 6.96967 15.9054L8.73043 17.6662C8.91367 17.8494 9.17852 17.9251 9.43091 17.8663C9.6833 17.8075 9.88745 17.6226 9.97085 17.3772C10.565 15.6294 11.5778 14.0738 12.8907 12.8304Z" fill="#0F172A"/>
<path fill-rule="evenodd" clip-rule="evenodd" d="M11.2477 6H7.50183C7.55421 4.54069 8.66165 3.29353 10.1639 3.16884C10.3878 3.15026 10.6121 3.13319 10.8368 3.11765C11.3367 2.15647 12.3417 1.5 13.5 1.5H15C16.1583 1.5 17.1633 2.15647 17.6632 3.11767C17.8879 3.13321 18.1121 3.15027 18.3358 3.16884C19.8751 3.2966 20.9999 4.60282 20.9999 6.10821V15.75C20.9999 17.4068 19.6567 18.75 17.9999 18.75V9.375C17.9999 7.51269 16.4915 6.00268 14.6299 6H11.25L11.2477 6ZM12 4.5C12 3.67157 12.6716 3 13.5 3H15C15.8284 3 16.5 3.67157 16.5 4.5H12Z" fill="#0F172A"/>
</svg>

<svg xmlns="http://www.w3.org/2000/svg" viewBox="0 0 24 24" fill="currentColor" aria-hidden="true">
  <path fill-rule="evenodd" d="M4.875 7.5C3.839 7.5 3 8.34 3 9.375v11.25c0 1.035.84 1.875 1.875 1.875h9.75c1.036 0 1.875-.84 1.875-1.875V9.375c0-1.036-.84-1.875-1.875-1.875h-9.75zm8.016 5.33a.75.75 0 10-1.032-1.089 12.778 12.778 0 00-2.877 4.055l-.952-.951a.75.75 0 00-1.06 1.06l1.76 1.761a.75.75 0 001.24-.289 11.258 11.258 0 012.92-4.547z" clip-rule="evenodd"/>
  <path fill-rule="evenodd" d="M11.248 6H7.502c.052-1.46 1.16-2.706 2.662-2.831.224-.019.448-.036.673-.051A3 3 0 0113.5 1.5H15a3 3 0 012.663 1.618c.225.015.45.032.673.05C19.876 3.298 21 4.604 21 6.109v9.642a3 3 0 01-3 3V9.375A3.375 3.375 0 0014.63 6H11.248zM12 4.5A1.5 1.5 0 0113.5 3H15a1.5 1.5 0 011.5 1.5H12z" clip-rule="evenodd"/>
</svg>
